docs/public/img/adapters/prisma.svg

<svg width="106" height="128" viewBox="0 0 106 128" fill="none" xmlns="http://www.w3.org/2000/svg">
<path fill-rule="evenodd" clip-rule="evenodd" d="M105.306 97.5187L61.2843 4.03669V4.03469C60.1803 1.69769 57.8763 0.155691 55.2653 0.0126908C52.5863 -0.143309 50.1863 1.14869 48.8323 3.34769L1.08827 80.6777C-0.390728 83.0877 -0.361728 86.0597 1.17227 88.4407L24.5103 124.593C25.9013 126.751 28.3113 128 30.8163 128C31.5263 128 32.2403 127.9 32.9423 127.692L100.686 107.656C102.761 107.042 104.458 105.574 105.346 103.628C106.231 101.681 106.217 99.4527 105.306 97.5187ZM95.4493 101.529L37.9703 118.529C36.2143 119.049 34.5313 117.53 34.9003 115.759L55.4343 17.4197C55.8183 15.5807 58.3603 15.2887 59.1623 16.9917L97.1823 97.7277C97.8993 99.2507 97.0813 101.047 95.4493 101.529Z" fill="black"/>
</svg>

<svg xmlns="http://www.w3.org/2000/svg" fill="none" viewBox="0 0 106 128"><path fill="#000" fill-rule="evenodd" d="M105.3 97.5 61.3 4a7 7 0 0 0-6-4 7 7 0 0 0-6.5 3.3L1.1 80.7a7.2 7.2 0 0 0 0 7.7l23.4 36.2a7.5 7.5 0 0 0 8.4 3l67.8-20a7 7 0 0 0 4.6-4c1-2 1-4.1 0-6Zm-9.9 4-57.4 17c-1.8.5-3.5-1-3.1-2.7l20.5-98.4c.4-1.8 3-2.1 3.8-.4l38 80.7c.7 1.6-.1 3.3-1.8 3.8Z" clip-rule="evenodd"/></svg>
